rospo-icon-theme-classic-common/32x32/places/folder-black-mail.svg

<svg height="32" width="32" xmlns="http://www.w3.org/2000/svg"><rect height="16" opacity=".2" rx="1.25" width="25" x="3" y="12"/><path d="m3 21.75c0 .692.5575 1.25 1.25 1.25h22.5c.692 0 1.25-.558 1.25-1.25v-13.5c0-.6925-.558-1.25-1.25-1.25h-12.75v-.75c0-.6925-.557-1.25-1.25-1.25h-8.5c-.6925 0-1.25.5575-1.25 1.25" fill="#3f3f3f"/><rect height="16" opacity=".2" rx="1.25" width="25" x="3" y="10"/><rect fill="#dcdcdc" height="10" rx="1.25" width="21" x="5" y="9"/><rect fill="#4f4f4f" height="16" rx="1.25" width="25" x="3" y="11"/><path d="m4.25 5c-.6925 0-1.25.5575-1.25 1.25v1c0-.6925.5575-1.25 1.25-1.25h8.5c.693 0 1.25.5575 1.25 1.25v.75h12.75c.692 0 1.25.5575 1.25 1.25v-1c0-.6925-.558-1.25-1.25-1.25h-12.75v-.75c0-.6925-.557-1.25-1.25-1.25z" fill="#fff" opacity=".1"/><path d="m16 13c-3.313 0-6 2.687-6 6 0 3.314 2.687 6 6 6h3.75s.703-.301.75-1.051c0-.75-.75-.949-.75-.949h-3.75c-.195-.001-.389-.017-.582-.047-.7-.079-1.256-.299-1.676-.652l-.006-.004c-1.086-.746-1.736-1.979-1.736-3.297 0-2.209 1.791-4 4-4s4 1.791 4 4c0 .454-.092.745-.24 1.002-.004 0-.007-.002-.01-.002h-.934c.112-.314.184-.648.184-1 0-1.657-1.343-3-3-3-1.656 0-3 1.343-3 3s1.343 3 3 3h3.75c.542-.05.923-.371 1.27-.576.762-.544.98-1.31.98-2.424 0-3.314-2.686-6-6-6zm0 5c .552 0 1 .448 1 1s-.448 1-1 1-1-.448-1-1 .448-1 1-1z" fill="#c2c2c2"/></svg>

<svg xmlns="http://www.w3.org/2000/svg" width="32" height="32" version="1">
 <rect style="opacity:0.2" width="25" height="16" x="3" y="12" rx="1.25" ry="1.25"/>
 <path style="fill:#3f3f3f" d="M 3,21.75 C 3,22.442 3.5575,23 4.25,23 H 26.75 C 27.442,23 28,22.442 28,21.75 V 8.25 C 28,7.5575 27.442,7 26.75,7 H 14 V 6.25 C 14,5.5575 13.443,5 12.75,5 H 4.25 C 3.5575,5 3,5.5575 3,6.25"/>
 <rect style="opacity:0.2" width="25" height="16" x="3" y="10" rx="1.25" ry="1.25"/>
 <rect style="fill:#dcdcdc" width="21" height="10" x="5" y="9" rx="1.25" ry="1.25"/>
 <rect style="fill:#4f4f4f" width="25" height="16" x="3" y="11" rx="1.25" ry="1.25"/>
 <path style="opacity:0.1;fill:#ffffff" d="M 4.25 5 C 3.5575 5 3 5.5575 3 6.25 L 3 7.25 C 3 6.5575 3.5575 6 4.25 6 L 12.75 6 C 13.443 6 14 6.5575 14 7.25 L 14 8 L 26.75 8 C 27.442 8 28 8.5575 28 9.25 L 28 8.25 C 28 7.5575 27.442 7 26.75 7 L 14 7 L 14 6.25 C 14 5.5575 13.443 5 12.75 5 L 4.25 5 z"/>
 <path style="fill:#c2c2c2" d="M 16,13 C 12.687,13 10,15.687 10,19 10,22.314 12.687,25 16,25 H 19.75 C 19.75,25 20.453,24.699 20.5,23.949 20.5,23.199 19.75,23 19.75,23 H 16 C 15.805,22.999 15.611,22.983 15.418,22.953 14.718,22.874 14.162,22.654 13.742,22.301 L 13.736,22.297 C 12.65,21.551 12,20.318 12,19 12,16.791 13.791,15 16,15 18.209,15 20,16.791 20,19 20,19.454 19.908,19.745 19.76,20.002 19.756,20.002 19.753,20 19.75,20 H 18.816 C 18.928,19.686 19,19.352 19,19 19,17.343 17.657,16 16,16 14.344,16 13,17.343 13,19 13,20.657 14.343,22 16,22 H 19.75 C 20.292,21.95 20.673,21.629 21.02,21.424 21.782,20.88 22,20.114 22,19 22,15.686 19.314,13 16,13 Z M 16,18 C 16.552,18 17,18.448 17,19 17,19.552 16.552,20 16,20 15.448,20 15,19.552 15,19 15,18.448 15.448,18 16,18 Z"/>
</svg>
